X: 39207
T: Syd And Nettie's
R: waltz
M: 3/4
K: Dmajor
AB d2<f2|af e2<d2|ed BF>FA2|A B(3GAGE2|E2c<ee|
fe2c3|dc BA cB|Ac Ad BA|FA d2<f2|
af e2<d2|ed BF>FA2|A B(3GAGE2|E2e2e|
fe2c3|dc BA cB|Ac2d2e2|f2g2a|
b2 a4|ba fe2f2|g2(3f^ef=e2|d2B3|
dB A2<G2|AB dg2e2|d2c de|df ag2a|
b3a3|ba fe2f2|g2(3f^ef=e2|d2B3|
dB A2<G2|Be d(3cdcB2|c2d3|

